src/16/actions/view-list-details.svg

<svg xmlns="http://www.w3.org/2000/svg" viewBox="0 0 16 16"><path d="M2 2v5h5V2H2zm6 0v1h6V2H8zM3 3h3v3H3V3zm5 2v1h6V5H8zM2 9v5h5V9H2zm6 0v1h4V9H8zm0 3v1h4v-1H8z" fill="currentColor" color="#5d656b"/></svg>

<svg xmlns="http://www.w3.org/2000/svg" viewBox="0 0 16 16">
  <defs id="defs3051">
    <style type="text/css" id="current-color-scheme">
      .ColorScheme-Text {
        color:#5d656b;
      }
      </style>
  </defs>
 <path style="fill:currentColor;fill-opacity:1;stroke:none" 
       d="M 2 2 L 2 7 L 7 7 L 7 2 L 2 2 z M 8 2 L 8 3 L 14 3 L 14 2 L 8 2 z M 3 3 L 6 3 L 6 6 L 3 6 L 3 3 z M 8 5 L 8 6 L 14 6 L 14 5 L 8 5 z M 2 9 L 2 14 L 7 14 L 7 9 L 2 9 z M 8 9 L 8 10 L 12 10 L 12 9 L 8 9 z M 8 12 L 8 13 L 12 13 L 12 12 L 8 12 z "
     class="ColorScheme-Text"
     />
</svg>
